images/twitch.svg

<svg xmlns="http://www.w3.org/2000/svg" width="24" height="24" viewBox="0 0 24 24"><path d="M10.224 17.806l1.776-1.776h3.343l2.09-2.09v-6.686h-10.03v8.776h2.821v1.776zm3.866-8.149h1.254v3.653h-1.254v-3.653zm-3.344 0h1.254v3.653h-1.254v-3.653zm1.254-9.657c-6.627 0-12 5.373-12 12s5.373 12 12 12 12-5.373 12-12-5.373-12-12-12zm6.687 14.567l-3.657 3.657h-2.716l-1.777 1.776h-1.88v-1.776h-3.344v-9.821l.941-2.403h12.433v8.567z"/></svg>

<?xml version="1.0" encoding="utf-8"?>
<!-- Generator: Adobe Illustrator 27.2.0, SVG Export Plug-In . SVG Version: 6.00 Build 0)  -->
<svg version="1.1" id="Layer_1" xmlns="http://www.w3.org/2000/svg" xmlns:xlink="http://www.w3.org/1999/xlink" x="0px" y="0px"
	 viewBox="0 0 24 24" style="enable-background:new 0 0 24 24;" xml:space="preserve">
<style type="text/css">
	.st0{fill:#EFE1CA;}
</style>
<path class="st0" d="M10.2,17.8L12,16h3.3l2.1-2.1V7.3h-10V16h2.8C10.2,16,10.2,17.8,10.2,17.8z M14.1,9.7h1.3v3.7h-1.3V9.7z
	 M10.7,9.7H12v3.7h-1.3V9.7z M12,0C5.4,0,0,5.4,0,12s5.4,12,12,12s12-5.4,12-12S18.6,0,12,0z M18.7,14.6L15,18.2h-2.7L10.5,20H8.7
	v-1.8H5.3V8.4L6.3,6h12.4C18.7,6,18.7,14.6,18.7,14.6z"/>
</svg>
